school/img/country/US.svg

<svg width="13" height="12" viewBox="0 0 13 12" fill="none" xmlns="http://www.w3.org/2000/svg">
<rect width="13" height="12" rx="2" fill="white"/>
<mask id="mask0" mask-type="alpha" maskUnits="userSpaceOnUse" x="0" y="0" width="13" height="12">
<rect width="13" height="12" rx="2" fill="white"/>
</mask>
<g mask="url(#mask0)">
<path fill-rule="evenodd" clip-rule="evenodd" d="M13 0H0V0.8H13V0ZM13 1.6H0V2.4H13V1.6ZM0 3.2H13V4H0V3.2ZM13 4.8H0V5.6H13V4.8ZM0 6.4H13V7.2H0V6.4ZM13 8H0V8.8H13V8ZM0 9.6H13V10.4H0V9.6ZM13 11.2H0V12H13V11.2Z" fill="#D02F44"/>
<rect width="5.57143" height="5.6" fill="#46467F"/>
<g filter="url(#filter0_d)">
<path fill-rule="evenodd" clip-rule="evenodd" d="M1.23807 1.2C1.23807 1.42091 1.09949 1.6 0.928542 1.6C0.757597 1.6 0.619019 1.42091 0.619019 1.2C0.619019 0.979086 0.757597 0.8 0.928542 0.8C1.09949 0.8 1.23807 0.979086 1.23807 1.2ZM2.47618 1.2C2.47618 1.42091 2.3376 1.6 2.16666 1.6C1.99571 1.6 1.85714 1.42091 1.85714 1.2C1.85714 0.979086 1.99571 0.8 2.16666 0.8C2.3376 0.8 2.47618 0.979086 2.47618 1.2ZM3.40471 1.6C3.57566 1.6 3.71424 1.42091 3.71424 1.2C3.71424 0.979086 3.57566 0.8 3.40471 0.8C3.23377 0.8 3.09519 0.979086 3.09519 1.2C3.09519 1.42091 3.23377 1.6 3.40471 1.6ZM4.95235 1.2C4.95235 1.42091 4.81377 1.6 4.64283 1.6C4.47188 1.6 4.3333 1.42091 4.3333 1.2C4.3333 0.979086 4.47188 0.8 4.64283 0.8C4.81377 0.8 4.95235 0.979086 4.95235 1.2ZM1.54757 2.4C1.71851 2.4 1.85709 2.22091 1.85709 2C1.85709 1.77909 1.71851 1.6 1.54757 1.6C1.37662 1.6 1.23804 1.77909 1.23804 2C1.23804 2.22091 1.37662 2.4 1.54757 2.4ZM3.09521 2C3.09521 2.22091 2.95663 2.4 2.78569 2.4C2.61474 2.4 2.47616 2.22091 2.47616 2C2.47616 1.77909 2.61474 1.6 2.78569 1.6C2.95663 1.6 3.09521 1.77909 3.09521 2ZM4.0238 2.4C4.19475 2.4 4.33333 2.22091 4.33333 2C4.33333 1.77909 4.19475 1.6 4.0238 1.6C3.85286 1.6 3.71428 1.77909 3.71428 2C3.71428 2.22091 3.85286 2.4 4.0238 2.4ZM4.95235 2.8C4.95235 3.02091 4.81377 3.2 4.64283 3.2C4.47188 3.2 4.3333 3.02091 4.3333 2.8C4.3333 2.57909 4.47188 2.4 4.64283 2.4C4.81377 2.4 4.95235 2.57909 4.95235 2.8ZM3.40471 3.2C3.57566 3.2 3.71424 3.02091 3.71424 2.8C3.71424 2.57909 3.57566 2.4 3.40471 2.4C3.23377 2.4 3.09519 2.57909 3.09519 2.8C3.09519 3.02091 3.23377 3.2 3.40471 3.2ZM2.47618 2.8C2.47618 3.02091 2.3376 3.2 2.16666 3.2C1.99571 3.2 1.85714 3.02091 1.85714 2.8C1.85714 2.57909 1.99571 2.4 2.16666 2.4C2.3376 2.4 2.47618 2.57909 2.47618 2.8ZM0.928542 3.2C1.09949 3.2 1.23807 3.02091 1.23807 2.8C1.23807 2.57909 1.09949 2.4 0.928542 2.4C0.757597 2.4 0.619019 2.57909 0.619019 2.8C0.619019 3.02091 0.757597 3.2 0.928542 3.2ZM1.85709 3.6C1.85709 3.82091 1.71851 4 1.54757 4C1.37662 4 1.23804 3.82091 1.23804 3.6C1.23804 3.37909 1.37662 3.2 1.54757 3.2C1.71851 3.2 1.85709 3.37909 1.85709 3.6ZM2.78569 4C2.95663 4 3.09521 3.82091 3.09521 3.6C3.09521 3.37909 2.95663 3.2 2.78569 3.2C2.61474 3.2 2.47616 3.37909 2.47616 3.6C2.47616 3.82091 2.61474 4 2.78569 4ZM4.33333 3.6C4.33333 3.82091 4.19475 4 4.0238 4C3.85286 4 3.71428 3.82091 3.71428 3.6C3.71428 3.37909 3.85286 3.2 4.0238 3.2C4.19475 3.2 4.33333 3.37909 4.33333 3.6ZM4.64283 4.8C4.81377 4.8 4.95235 4.62091 4.95235 4.4C4.95235 4.17909 4.81377 4 4.64283 4C4.47188 4 4.3333 4.17909 4.3333 4.4C4.3333 4.62091 4.47188 4.8 4.64283 4.8ZM3.71424 4.4C3.71424 4.62091 3.57566 4.8 3.40471 4.8C3.23377 4.8 3.09519 4.62091 3.09519 4.4C3.09519 4.17909 3.23377 4 3.40471 4C3.57566 4 3.71424 4.17909 3.71424 4.4ZM2.16666 4.8C2.3376 4.8 2.47618 4.62091 2.47618 4.4C2.47618 4.17909 2.3376 4 2.16666 4C1.99571 4 1.85714 4.17909 1.85714 4.4C1.85714 4.62091 1.99571 4.8 2.16666 4.8ZM1.23807 4.4C1.23807 4.62091 1.09949 4.8 0.928542 4.8C0.757597 4.8 0.619019 4.62091 0.619019 4.4C0.619019 4.17909 0.757597 4 0.928542 4C1.09949 4 1.23807 4.17909 1.23807 4.4Z" fill="url(#paint0_linear)"/>
</g>
</g>
<defs>
<filter id="filter0_d" x="0.619019" y="0.8" width="4.33333" height="5" filterUnits="userSpaceOnUse" color-interpolation-filters="sRGB">
<feFlood flood-opacity="0" result="BackgroundImageFix"/>
<feColorMatrix in="SourceAlpha" type="matrix" values="0 0 0 0 0 0 0 0 0 0 0 0 0 0 0 0 0 0 127 0"/>
<feOffset dy="1"/>
<feColorMatrix type="matrix" values="0 0 0 0 0 0 0 0 0 0 0 0 0 0 0 0 0 0 0.06 0"/>
<feBlend mode="normal" in2="BackgroundImageFix" result="effect1_dropShadow"/>
<feBlend mode="normal" in="SourceGraphic" in2="effect1_dropShadow" result="shape"/>
</filter>
<linearGradient id="paint0_linear" x1="0.619019" y1="0.8" x2="0.619019" y2="4.8" gradientUnits="userSpaceOnUse">
<stop stop-color="white"/>
<stop offset="1" stop-color="#F0F0F0"/>
</linearGradient>
</defs>
</svg>

<svg width="13" height="12" fill="none" xmlns="http://www.w3.org/2000/svg"><rect width="13" height="12" rx="2" fill="#fff"/><mask id="a" maskUnits="userSpaceOnUse" x="0" y="0" width="13" height="12"><rect width="13" height="12" rx="2" fill="#fff"/></mask><g mask="url(#a)"><path fill-rule="evenodd" clip-rule="evenodd" d="M13 0H0v.8h13V0zm0 1.6H0v.8h13v-.8zM0 3.2h13V4H0v-.8zm13 1.6H0v.8h13v-.8zM0 6.4h13v.8H0v-.8zM13 8H0v.8h13V8zM0 9.6h13v.8H0v-.8zm13 1.6H0v.8h13v-.8z" fill="#D02F44"/><path fill="#46467F" d="M0 0h5.571v5.6H0z"/><g filter="url(#filter0_d)"><path fill-rule="evenodd" clip-rule="evenodd" d="M1.238 1.2c0 .22-.139.4-.31.4-.17 0-.309-.18-.309-.4 0-.22.139-.4.31-.4.17 0 .31.18.31.4zm1.238 0c0 .22-.138.4-.31.4-.17 0-.309-.18-.309-.4 0-.22.139-.4.31-.4.17 0 .31.18.31.4zm.929.4c.17 0 .31-.18.31-.4 0-.22-.14-.4-.31-.4-.171 0-.31.18-.31.4 0 .22.139.4.31.4zm1.547-.4c0 .22-.138.4-.31.4-.17 0-.309-.18-.309-.4 0-.22.139-.4.31-.4.17 0 .31.18.31.4zM1.548 2.4c.17 0 .31-.18.31-.4 0-.22-.14-.4-.31-.4-.171 0-.31.18-.31.4 0 .22.139.4.31.4zM3.095 2c0 .22-.138.4-.31.4-.17 0-.309-.18-.309-.4 0-.22.139-.4.31-.4.17 0 .31.18.31.4zm.929.4c.17 0 .31-.18.31-.4 0-.22-.14-.4-.31-.4-.171 0-.31.18-.31.4 0 .22.139.4.31.4zm.928.4c0 .22-.138.4-.31.4-.17 0-.309-.18-.309-.4 0-.22.139-.4.31-.4.17 0 .31.18.31.4zm-1.547.4c.17 0 .31-.18.31-.4 0-.22-.14-.4-.31-.4-.171 0-.31.18-.31.4 0 .22.139.4.31.4zm-.929-.4c0 .22-.138.4-.31.4-.17 0-.309-.18-.309-.4 0-.22.139-.4.31-.4.17 0 .31.18.31.4zM.93 3.2c.17 0 .31-.18.31-.4 0-.22-.14-.4-.31-.4-.171 0-.31.18-.31.4 0 .22.139.4.31.4zm.928.4c0 .22-.138.4-.31.4-.17 0-.309-.18-.309-.4 0-.22.139-.4.31-.4.17 0 .31.18.31.4zm.929.4c.17 0 .31-.18.31-.4 0-.22-.14-.4-.31-.4-.171 0-.31.18-.31.4 0 .22.139.4.31.4zm1.547-.4c0 .22-.138.4-.31.4-.17 0-.309-.18-.309-.4 0-.22.139-.4.31-.4.17 0 .31.18.31.4zm.31 1.2c.17 0 .31-.18.31-.4 0-.22-.14-.4-.31-.4-.171 0-.31.18-.31.4 0 .22.139.4.31.4zm-.929-.4c0 .22-.138.4-.31.4-.17 0-.309-.18-.309-.4 0-.22.139-.4.31-.4.17 0 .31.18.31.4zm-1.547.4c.17 0 .31-.18.31-.4 0-.22-.14-.4-.31-.4-.171 0-.31.18-.31.4 0 .22.139.4.31.4zm-.929-.4c0 .22-.139.4-.31.4-.17 0-.309-.18-.309-.4 0-.22.139-.4.31-.4.17 0 .31.18.31.4z" fill="url(#paint0_linear)"/></g></g><defs><linearGradient id="paint0_linear" x1=".619" y1=".8" x2=".619" y2="4.8" gradientUnits="userSpaceOnUse"><stop stop-color="#fff"/><stop offset="1" stop-color="#F0F0F0"/></linearGradient><filter id="filter0_d" x=".619" y=".8" width="4.333" height="5" filterUnits="userSpaceOnUse" color-interpolation-filters="sRGB"><feFlood flood-opacity="0" result="BackgroundImageFix"/><feColorMatrix in="SourceAlpha" values="0 0 0 0 0 0 0 0 0 0 0 0 0 0 0 0 0 0 127 0"/><feOffset dy="1"/><feColorMatrix values="0 0 0 0 0 0 0 0 0 0 0 0 0 0 0 0 0 0 0.06 0"/><feBlend in2="BackgroundImageFix" result="effect1_dropShadow"/><feBlend in="SourceGraphic" in2="effect1_dropShadow" result="shape"/></filter></defs></svg>
